X:1
T:Lonely Boy (Transcribed)
T:Lonely Boy
C:Paul Anka
Z:All Rights Reserved
L:1/8
M:4/4
K:C
V:1 treble nm="Vibraphone" snm="Vibs"
%%MIDI channel 16
%%MIDI program 11
V:1
"C " (3eee"Bb " (3ddf"C " (3eee"Bb " (3ddf |"C " (3eee"Bb " (3ddf"C " e2 (3eee | %2
w: |* * * * * * * I'm just a|
 (3edc- c2 z2"Amin7" (3eee |"G " (3:2:2e d2- d2 z2"Dmin" (3ddf | %4
w: lone- ly boy, * lone- ly and|bl- ue. * I'm all a\-|
"G " (3:2:2f d2-"Dmin7" d2"G " z d"G7" (3eed |"C ""Bb " c4"C " z e (3eed | %6
w: lo- ne * with no- thing to|do. I've got ev- ry-|
 (3edc- c2 z2"Amin7" (3eee |"G " (3:2:2e d2- d2 z d"Dmin" (3:2:2d2 f | %8
w: thi- n\- g * you could think|o\- f * but all I|
"G " (3:2:2f d2-"Dmin7" d2"G " z d"G7" (3eed |"C ""Bb ""C " c4 z2 (3eec |[M:1/4] (3eed | %11
w: wa- nt * is some- one to|love. Some- one, yes|some- one to|
[M:4/4] (3:2:2e c2- c2 z2"Amin7" (3eee |"G " (3:2:2e d2- d2 z2"Dmin" (3ddf | %13
w: lo- ve, * some- one to|ki- ss, * some- one to|
"G " (3:2:2f d2-"Dmin7" d2"G "(3zdd"G7" (3eed |"C ""Bb " c4"C " z2 (3eee | %15
w: ho- ld * at a mom- ment like|this. I'd like to|
 (3edc- c2 z2"Amin7" (3eee |"G " (3:2:2e d2- d2 z d"Dmin" (3ddf | %17
w: he- a\- r * some- bo- dy|sa- y * "I'll give you my|
"G " (3:2:2f2"Dmin7" d-"G " d2 z2"G7" (3dcB |"C " c2"Bb " (3ddf"C " (3eee"Bb " (3ddf | %19
w: lo- ve * each night and|day". * * * * * * * * *|
"C " (3eee"Bb " (3ddf"C " e2 (3eee | (3edc- c2 z2"Amin7" (3eee | %21
w: * * * * * * * I'm just a|lone- ly boy, * lone- ly and|
"G " (3:2:2e d2- d2 z2"Dmin" (3ddf |"G " (3:2:2f d2-"Dmin7" d2"G " z d"G7" (3dcB | %23
w: bl- ue. * I'm all a\-|lo- ne * with no- thing to|
"C ""Bb " c4"C " z e (3eee | (3edc- c2 z2"Amin7" (3eee |"G " (3:2:2e d2- d2 z d"Dmin" (3:2:2d2 f | %26
w: do. I've got ev- ry-|th- i\- ng * you can think|o\- f * but all I|
"G " (3:2:2f d2-"Dmin7" d2"G " z d"G7" (3dcB |"C ""Bb " c4"C " z2 (3eee |[M:2/4] (3eee (3edc | %29
w: wa- nt * is some- one to|love. Some- bo- dy,|some- bo- dy, some- bo- dy|
[M:4/4] (3:2:2e c2- c2 z2"Amin7" (3eee |"G " (3:2:2e d2- d2 z2"Dmin" (3ddf | %31
w: ple- ase * send her to|m\- e. * I'll make her|
"G " (3:2:2f d2-"Dmin7" d2"G " z2"G7" (3eed |"C " c4 z2 (3eee | (3edc- c2"Amin7"(3zee (3eee | %34
w: hap- py * just wait and|see. I prayed so|ha- r\- d * to the hea- vens a\-|
"G " (3:2:2e d2- d2 z d"Dmin" df |"G7" (3:2:2f d2-"Dmin7" d2"G " z2"G7" (3dcB | %36
w: bo- ve * that I might|fi- nd * some- one to|
"C " c2"Bb " (3ddf"C " (3eee"Bb " (3ddf |"C " (3eee"Bb " (3ddf"C " e2 (3eee | %38
w: love. * * * * * * * * *|* * * * * * * I'm just a|
 (3edc- c2 z2"Amin7" (3eee |"G " (3:2:2e d2- d2 z2"Dmin" (3ddf | %40
w: lone- ly boy, * lone- ly and|bl- ue. * I'm all a\-|
"G " (3:2:2f d2-"Dmin7" d2"G " z d"G7" (3eed |"C ""Bb " c4"C " z e (3eed | %42
w: lo- ne * with no- thing to|do. I've got ev- ry|
 (3edc- c2 z2"Amin7" (3eee |"G " (3:2:2e d2- d2 z2"Dmin" (3ddf | %44
w: th- i\- ng * you could thing|o\- f * but all I|
"G " (3:2:2f d2-"Dmin7" d2"G " z d"G7" (3dcB |"C ""Bb ""C ""Bb " c8 |"C " (3eee"G7" (3ddf"C " e4 |] %47
w: wa- nt * is some- one to|love.||

